icons/arrow-box-out-right.svg

<svg xmlns="http://www.w3.org/2000/svg" width="24" height="24" viewBox="0 0 24 24">
  <path d="M12,4 C13.5976809,4 14.9036609,5.24891996 14.9949073,6.82372721 L15,7 L15,8 C15,8.55228475 14.5522847,9 14,9 C13.4871642,9 13.0644928,8.61395981 13.0067277,8.11662113 L13,8 L13,7 C13,6.48716416 12.6139598,6.06449284 12.1166211,6.00672773 L12,6 L4,6 C3.48716416,6 3.06449284,6.38604019 3.00672773,6.88337887 L3,7 L3,17 C3,17.5128358 3.38604019,17.9355072 3.88337887,17.9932723 L4,18 L12,18 C12.5128358,18 12.9355072,17.6139598 12.9932723,17.1166211 L13,17 L13,16 C13,15.4477153 13.4477153,15 14,15 C14.5128358,15 14.9355072,15.3860402 14.9932723,15.8833789 L15,16 L15,17 C15,18.5976809 13.75108,19.9036609 12.1762728,19.9949073 L12,20 L4,20 C2.40231912,20 1.09633912,18.75108 1.00509269,17.1762728 L1,17 L1,7 C1,5.40231912 2.24891996,4.09633912 3.82372721,4.00509269 L4,4 L12,4 Z M18.3702588,6.96706393 L18.4644661,7.05025253 L22.7071068,11.2928932 C22.7355731,11.3213595 22.7623312,11.3515341 22.787214,11.3832499 L22.7071068,11.2928932 C22.7425008,11.3282873 22.774687,11.3656744 22.8036654,11.4046934 C22.8215099,11.4288693 22.8382813,11.453725 22.8539326,11.4793398 C22.8613931,11.4913869 22.8685012,11.5036056 22.8753288,11.5159379 C22.8862061,11.5357061 22.8966234,11.5561086 22.9063462,11.5769009 C22.914321,11.5939015 22.9218036,11.6112044 22.9287745,11.628664 C22.9366843,11.6484208 22.9438775,11.6682023 22.9504533,11.6882636 C22.9552713,11.7031487 22.9599023,11.7185367 22.9641549,11.734007 C22.9701664,11.7555635 22.9753602,11.7772539 22.9798348,11.7992059 C22.9832978,11.8166247 22.9863719,11.834051 22.9889822,11.8515331 C22.9920941,11.8718856 22.994564,11.8929426 22.9963697,11.914189 C22.997855,11.9320769 22.9988772,11.949409 22.9994506,11.9667532 C22.9998151,11.9775981 23,11.9887775 23,12 L22.9994829,12.0322546 C22.9989053,12.0502664 22.9978436,12.0682655 22.9962979,12.0862308 L23,12 C23,12.0506203 22.9962388,12.1003621 22.9889807,12.1489612 C22.9863719,12.165949 22.9832978,12.1833753 22.9797599,12.2007258 C22.9753602,12.2227461 22.9701664,12.2444365 22.964279,12.2658396 C22.9599023,12.2814633 22.9552713,12.2968513 22.9502619,12.3121425 C22.9438775,12.3317977 22.9366843,12.3515792 22.928896,12.3710585 C22.9218036,12.3887956 22.914321,12.4060985 22.9063266,12.4232215 C22.8966234,12.4438914 22.8862061,12.4642939 22.8751242,12.484277 C22.8685012,12.4963944 22.8613931,12.5086131 22.8540045,12.5207088 C22.8382813,12.546275 22.8215099,12.5711307 22.8036865,12.5951593 C22.7992821,12.6012086 22.7948255,12.6070733 22.7902954,12.6128994 C22.7849289,12.6196628 22.7826279,12.6225624 22.7803112,12.625449 L22.7071068,12.7071068 L18.4644661,16.9497475 C18.0739418,17.3402718 17.4407768,17.3402718 17.0502525,16.9497475 C16.6897686,16.5892635 16.662039,16.0220325 16.9670639,15.6297412 L17.0502525,15.5355339 L19.586,12.999 L10,13 C9.44771525,13 9,12.5522847 9,12 C9,11.4871642 9.38604019,11.0644928 9.88337887,11.0067277 L10,11 L19.584,10.999 L17.0502525,8.46446609 C16.6597282,8.0739418 16.6597282,7.44077682 17.0502525,7.05025253 C17.4107365,6.68976857 17.9779675,6.66203903 18.3702588,6.96706393 Z"/>
</svg>

<svg xmlns="http://www.w3.org/2000/svg" viewBox="0 0 24 24">
  <path d="M12 4a3 3 0 0 1 3 2.82V8a1 1 0 0 1-2 .12V7a1 1 0 0 0-.88-1H4a1 1 0 0 0-1 .88V17a1 1 0 0 0 .88 1H12a1 1 0 0 0 1-.88V16a1 1 0 0 1 2-.12V17a3 3 0 0 1-2.82 3H4a3 3 0 0 1-3-2.82V7a3 3 0 0 1 2.82-3H12zm6.37 2.97.1.08 4.24 4.24a1 1 0 0 1 .08.1l-.08-.1A1 1 0 0 1 23 12v.03a1 1 0 0 1 0 .06V12a1 1 0 0 1-.22.63l-.07.08-4.25 4.24a1 1 0 0 1-1.5-1.32l.09-.1L19.59 13H10a1 1 0 0 1-.12-2h9.7l-2.53-2.54a1 1 0 0 1 1.32-1.5z"/>
</svg>
